X: 12836
T: Fem Får Og Fire Geder
R: polka
M: 2/4
K: Gmajor
B2 B2|BA AG|G/A/B/A/ G/A/B/c/|BA AG|d2 BA/B/|1 G2 G>A:|2 G2 G/A/B/c/||
|:d2 d2|dc cB|B/c/d/c/ B/c/d/e/|dc cB|
BA/G/ A2|Bc/B/ A2|B/A/B/c/ dc/B/|1 AA G/A/B/c/:|2 AA G>A||

